X:1
T:Der evangelische Kirchenchor
T:Bis hierher hat mich Gott gebracht
T:Max Reger
T:Text: Ämilie Juliane von Schwarzburg-Rudolstadt
T:Bis hierher hat mich Gott gebracht
T:Nr. 5 aus Der evangelische Kirchenchor, WoO VI/17 
T:CPDL - Creative Commons Attribution Non Commercial 3.0
C:Max Reger
Z:Ämilie Juliane von Schwarzburg-Rudolstadt
Z:CPDL - Creative Commons Attribution Non Commercial 3.0
%%score [ ( 1 2 ) ( 3 4 ) ]
L:1/8
Q:1/4=90
M:3/4
K:A
V:1 treble nm="Sopran\nAlt"
V:2 treble 
V:3 bass nm="Tenor\nBass"
V:4 bass 
V:1
"^Lebhaft"!f!!<(! A2 | c4 d2!<)! | e4 d2 | c4!>(! B2 | c4!>)!!<(! c2 | c4!<)! B2 | d4 B2 | %7
w: 1.~Bis|hier- her|hat mich|Gott ge-|bracht durch|sei- ne|gro- ße|
w: 2.~Dir|sei Lob,|Eh- re,|Preis und|Dank für|die bis-|her'- ge|
w: 3.~Hilf|fer- ner-|hin, mein|treu'- ster|Hort, hilf|mir zu|al- len|
!>(! (A4 G2) | A4!>)! |!f!!<(! A2 | c4 d2!<)! | e4 d2 | c4!>(! B2 | c4!>)!!<(! c2 | c4!<)! B2 | %15
w: Gü- *|te,|bis|hier- her|hat er|Tag und|Nacht be-|wahrt Herz|
w: Treu- *|e,|die|du, o|Gott, mir|le- bens-|lang be-|wie- sen|
w: Stun- *|den;|hilf|mir an|all' und|je- dem|Ort, hilf|mir durch|
 d4 B2 |!>(! (A4 G2) | A4!>)! |!p!!<(! A2 | A4 B2!<)! | d4 c2 | B4!>(! ^A2 | B4!>)!!mf!!<(! B2 | %23
w: und Ge-|mü- *|te,|bis|hier- her|hat er|mich ge-|leit't, bis|
w: täg- lich|neu- *|e.|In|mein Ge-|dächt- nis|schreib ich|an: Der|
w: Je- su|Wun- *|den;|da-|mit ich|sa- ge|bis in|Tod: Durch|
 c4 d2!<)! | e4 d2 |!>(! c4 B2 | c4!>)!!f!!<(! A2 | B4 d2!<)! | c4 B2 | (A4!>(! G2) | %30
w: hier- her|hat er|mich er-|freut, bis|hier- her|mir ge-|hol- *|
w: Herr hat|wohl an|mir ge-|tan, bis|hier- her|mir ge-|hol- *|
w: Chris- ti|Blut hilf|mir, mein|Gott, hilf,|wie du|sonst ge-|hol- *|
 !fermata!A4!>)! |] %31
w: fen.|
w: fen.|
w: fen!|
V:2
 F2 | A4 A2 | (A3 G) F2 | G4 F2 | ^E4 F2 | =G4 G2 | F4 F2 | E6 | E4 | F2 | A4 A2 | (A3 G) F2 | %12
 G4 F2 | ^E4 F2 | =G4 G2 | F4 F2 | E6 | E4 | F2 | E4 E2 | D4 E2 | F4 E2 | D4 E2 | E4 F2 | E4 F2 | %25
 E4 F2 | ^E4 F2 | =G4 A2 | =G4 G2 | (F4 ED) | C4 |] %31
V:3
 D2 | E4 F2 | E4 A,2 | C4 D2 | G,4 A,2 | C4 D2 | D4 D2 | (C4 B,2) | C4 | D2 | E4 F2 | E4 A,2 | %12
 C4 D2 | G,4 A,2 | C4 D2 | D4 D2 | (C4 B,2) | C4 | D2 | A,4 G,2 | F,4 A,2 | D4 C2 | B,4 G,2 | %23
 A,4 A,2 | G,4 A,2 | C4 D2 | G,4 D2 | D4 D2 | E4 D2 | (D3 C B,2) | A,4 |] %31
V:4
 D,2 | A,,4 F,2 | C,4 D,2 | E,4 D,2 | C,4 F,2 | E,4 =G,2 | (B,,3 C,) D,2 | E,6 | A,,4 | D,2 | %10
 A,,4 F,2 | C,4 D,2 | E,4 D,2 | C,4 F,2 | E,4 =G,2 | (B,,3 C,) D,2 | E,6 | A,,4 | D,2 | C,4 E,2 | %20
 B,,4 C,2 | (D,3 E,) F,2 | B,,4 E,2 | A,4 F,2 | C,4 F,2 | A,4 D,2 | C,4 D,2 | =G,4 F,2 | %28
 (E,3 F,) =G,2 | (D,4 E,2) | !fermata![A,,E,]4 |] %31

